img/svg/square-ico.svg

<svg width="48" height="48" viewBox="0 0 48 48" fill="none" xmlns="http://www.w3.org/2000/svg">
<rect width="48" height="48" fill="#F1FFFB"/>
<path d="M33.427 29.6892C34.1885 30.4508 34.1885 31.6898 33.427 32.4513C33.4259 32.4526 33.4247 32.4536 33.4235 32.4549L32.0871 33.7746C31.9348 33.9249 31.7365 34 31.5382 34C31.3365 34 31.1351 33.9224 30.9822 33.7677C30.6792 33.4607 30.6822 32.966 30.9892 32.6628L31.7711 31.8906H19.2334C17.5103 31.8906 16.1084 30.4888 16.1084 28.7656V16.209L15.329 16.9781C15.0219 17.2811 14.5272 17.2777 14.2241 16.9706C13.9211 16.6634 13.9244 16.1687 14.2316 15.8657L15.5515 14.5637C16.3109 13.8145 17.5466 13.8145 18.306 14.5637L19.6259 15.8657C19.933 16.1687 19.9364 16.6634 19.6334 16.9706C19.4805 17.1255 19.2789 17.2031 19.0772 17.2031C18.879 17.2031 18.6808 17.1282 18.5285 16.9781L17.6709 16.132V28.7656C17.6709 29.6271 18.3719 30.3281 19.2334 30.3281H31.8503L30.9892 29.4777C30.6822 29.1745 30.679 28.6798 30.9822 28.3728C31.2854 28.066 31.7801 28.0628 32.0871 28.366L33.4235 29.6857C33.4247 29.6869 33.4259 29.688 33.427 29.6892V29.6892ZM31.6553 14H21.5381C21.1055 14 20.7553 14.3516 20.7569 14.7841C20.7585 15.2144 21.1078 15.5625 21.5381 15.5625H31.6553C32.0868 15.5625 32.4365 15.9122 32.4365 16.3437V26.5C32.4365 26.9303 32.7846 27.2797 33.2149 27.2812C33.6475 27.2827 33.999 26.9326 33.999 26.5V16.3437C33.999 15.0493 32.9497 14 31.6553 14ZM25.4834 27.3941C25.9149 27.3941 26.2647 27.0444 26.2647 26.6129V23.1357C26.2647 21.951 25.3009 20.9873 24.1162 20.9873C23.5973 20.9873 23.1207 21.1722 22.749 21.4797C22.3773 21.1722 21.9008 20.9873 21.3819 20.9873C21.0839 20.9873 20.7997 21.0485 20.5416 21.1586C20.4026 21.0314 20.2179 20.9531 20.0147 20.9531C19.5832 20.9531 19.2334 21.3028 19.2334 21.7344V26.6172C19.2334 27.0487 19.5832 27.3984 20.0147 27.3984C20.4462 27.3984 20.7959 27.0487 20.7959 26.6172V23.1357C20.7959 22.8127 21.0588 22.5498 21.3819 22.5498C21.7049 22.5498 21.9678 22.8127 21.9678 23.1357V26.6172C21.9678 27.0487 22.3175 27.3984 22.749 27.3984C23.1806 27.3984 23.5303 27.0487 23.5303 26.6172V23.1357C23.5303 22.8127 23.7932 22.5498 24.1162 22.5498C24.4393 22.5498 24.7022 22.8127 24.7022 23.1357V26.6129C24.7022 27.0444 25.0519 27.3941 25.4834 27.3941ZM29.0283 18.2187C29.0242 18.2187 29.0202 18.2194 29.0161 18.2194C29.0122 18.2194 29.0082 18.2187 29.0041 18.2187C28.0106 18.2187 27.2022 19.0281 27.2022 20.0228C27.2022 20.4541 27.5519 20.804 27.9834 20.804C28.4149 20.804 28.7647 20.4541 28.7647 20.0228C28.7647 19.8919 28.8744 19.7812 29.0041 19.7812C29.0082 19.7812 29.0122 19.7806 29.0163 19.7806C29.0202 19.7806 29.0242 19.7812 29.0283 19.7812C29.1527 19.7812 29.2586 19.8829 29.2671 20.0066C29.2517 20.0638 29.1319 20.4177 28.3833 21.2412C27.919 21.7518 27.4628 22.1676 27.4584 22.1715C27.2192 22.3885 27.1384 22.7303 27.2546 23.0314C27.3709 23.3326 27.6605 23.5312 27.9834 23.5312H30.0928C30.5243 23.5312 30.874 23.1815 30.874 22.75C30.874 22.3185 30.5243 21.9687 30.0928 21.9687H29.8241C30.5177 21.1521 30.8302 20.5443 30.8302 20.0228C30.8302 19.0281 30.0218 18.2187 29.0283 18.2187Z" fill="#4CCCA5"/>
</svg>

<svg width="48" height="48" fill="none" xmlns="http://www.w3.org/2000/svg"><path fill="#F1FFFB" d="M0 0h48v48H0z"/><path d="M33.427 29.69c.761.76.761 2 0 2.761l-.004.004-1.336 1.32a.779.779 0 01-1.105-.007.781.781 0 01.007-1.105l.782-.772H19.233a3.129 3.129 0 01-3.125-3.125V16.209l-.779.77a.781.781 0 01-1.097-1.113l1.32-1.302a1.967 1.967 0 012.754 0l1.32 1.302a.781.781 0 01-1.098 1.112l-.857-.846v12.634c0 .861.7 1.562 1.562 1.562H31.85l-.86-.85a.781.781 0 111.097-1.112l1.336 1.32c.002 0 .003.002.004.003zM31.655 14H21.538a.781.781 0 000 1.563h10.117c.432 0 .782.35.782.78V26.5a.781.781 0 001.562 0V16.344A2.344 2.344 0 0031.655 14zm-6.172 13.394c.432 0 .782-.35.782-.781v-3.477a2.15 2.15 0 00-2.149-2.149c-.519 0-.995.185-1.367.493a2.138 2.138 0 00-2.207-.321.781.781 0 00-1.308.576v4.882a.781.781 0 001.562 0v-3.481a.587.587 0 011.172 0v3.481a.781.781 0 101.562 0v-3.481a.587.587 0 011.172 0v3.477c0 .431.35.781.781.781zm3.545-9.175h-.024c-.993 0-1.802.81-1.802 1.804a.781.781 0 001.563 0c0-.131.11-.242.24-.242h.023c.125 0 .23.102.24.226-.016.057-.136.41-.885 1.234-.464.51-.92.927-.925.93a.781.781 0 00.525 1.36h2.11a.781.781 0 100-1.562h-.269c.694-.817 1.006-1.425 1.006-1.946 0-.995-.808-1.804-1.802-1.804z" fill="#4CCCA5"/></svg>
